X: 102030
T: James Connolly's Volunteers
S: Tom Downes
L: 1/8
M: 4/4
Q: 1/4 = 150
R: hornpipe
K: D
A>G | FA D2 D>EFG | A>BAF d2 E>F | GB E2 E>FGA | B2 E>F E2 A>G |
FAFE D2 E>F | GBGF E2 F>G | Adcd feBc | d4 d2 :|
F>G | A2 d2 A3 G | F>GAF D2 EF | G2 B2 E>FGA | Bdgf e2 fg |
a2 f>e defa | b2 gf e2 dB | Afef geBc | d4 d2 :|
fe | d2 d>d d3 a/f/ | d>efe d2 gf | e2 e>e e3 b/g/ | e>fgf e2 fg |
a f2 e d>efa | bg b/a/g/f/ e2 fg | aAdf gedc | d2 D>D D2 :|
D/E/F/G/ | AdFd AdFd | fedc d2 cd | egcg egcg | A/B/c/d/ gf e2 fg |
a2 f>e defa | b2 gf e2 fg | aAdf gedc | d2 d>d d2 :|
